X:1
T: Clemens' Reel
C:
R:Reel
Q: 232
K:F
M:4/4
L:1/8
|:F2 Ac f2 de|fe fd eg g2|F2 Ac fa gf|eb ge fd cA|
F2 Ac f2 de|fe fd eg ga|ba gf gf ed|cb eg f2 f2|
f2 cf Af cf|fa gf eg ga|f2 cf AF cF|Bd cB Ac de|
f2 cf Af cf|fa gf eg ga|ba gf gf ed|cb eg f2 f2:|
